app/dist/common/images/rocket-pharmaceuticals.svg

<svg height="18" viewBox="0 0 18 18" width="18" xmlns="http://www.w3.org/2000/svg"><path d="m0 0h18v18h-18z" fill="#f0f3fa"/><path d="m7.87 3.5 1.94 1.05v2.1l-1.94 1.04-1.93-1.04v-2.1zm-1.93 3.36 1.93 1.05v2.1l-1.93 1.05-1.94-1.06v-2.1l1.94-1.05zm8.06-2.3-1.94-1.06-1.93 1.07v2.13l1.93 1.07 1.94-1.07v-2.13zm-3.87 2.3 1.93 1.05v2.1l-1.93 1.05-1.94-1.06v-2.1l1.94-1.05zm-4 4.54 1.74-.96 1.74.96v1.92l-1.74.96-1.74-.96zm1.74-1.18 1.94 1.07v2.14l-1.94 1.07-1.93-1.07v-2.13l1.93-1.07z" fill="#ba3e31" fill-rule="evenodd"/></svg>

<!-- by TradingView --><svg width="18" height="18" viewBox="0 0 18 18" xmlns="http://www.w3.org/2000/svg"><path fill="#F0F3FA" d="M0 0h18v18H0z"/><path fill-rule="evenodd" d="m7.87 3.5 1.94 1.05v2.1L7.87 7.69 5.94 6.65v-2.1L7.87 3.5ZM5.94 6.86l1.93 1.05v2.1l-1.93 1.05L4 10v-2.1l1.94-1.05ZM14 4.56 12.06 3.5l-1.93 1.07V6.7l1.93 1.07L14 6.7V4.57Zm-3.87 2.3 1.93 1.05v2.1l-1.93 1.05L8.19 10v-2.1l1.94-1.05Zm-4 4.54 1.74-.96 1.74.96v1.92l-1.74.96-1.74-.96V11.4Zm1.74-1.18 1.94 1.07v2.14L7.87 14.5l-1.93-1.07V11.3l1.93-1.07Z" fill="#BA3E31"/></svg>
